X: 37763
T: Son Ar Rost
R: slide
M: 12/8
K: Adorian
M:4/4
|:A2A>B (3AGE c2|(3cBA B>c A>G (3EFG|
A2A>B (3AGE c>d|1 (3cBA (3GAB A2A>B:|2 (3cBA (3GAB A2A>E||
|:A>c d2 (3cBA G>B|c>B (3AAA (3GAB E>D|
(3EAc d2 (3cBA G>B|1 c>B (3ABG A2 A>E:|2 c>B (3ABG A2 (3EFG||

